X:1
T:Fogbound
T:For David Gardner
C:T. S. Macdonald
M:C|
L:1/8
K:Em
%%text Not for dancing
B,EGB AF F/F/F | GFEG FD D/D/D | eBAF GFEG | FDAF GEED |
B,EGB AF F/F/F | gfeg af f/f/f | GBeg fedB | AFdF GE E2 ||
B,EEB, Ee e/e/e | dBAF GE E/E/E | BeeB egge | fe^df ge e/e/e |
B,EGB, EGBe | gef^d e=dBA | GBeg fedB | AFdF GE E2 |]

